_includes/icons/ios-bank-card-back-side.svg

<svg fill="#666" height="50" viewBox="0 0 50 50" width="50" xmlns="http://www.w3.org/2000/svg"><path d="m7 9c-2.75 0-5 2.25-5 5v22c0 2.75 2.25 5 5 5h36c2.75 0 5-2.25 5-5v-22c0-2.75-2.25-5-5-5zm0 2h36c1.667969 0 3 1.332031 3 3v2h-42v-2c0-1.667969 1.332031-3 3-3zm-3 10h42v15c0 1.667969-1.332031 3-3 3h-36c-1.667969 0-3-1.332031-3-3zm5 3v2h16v-2z"/></svg>

<svg xmlns="http://www.w3.org/2000/svg" viewBox="0 0 50 50" width="50" height="50" fill="#666"><path d="M 7 9 C 4.25 9 2 11.25 2 14 L 2 36 C 2 38.75 4.25 41 7 41 L 43 41 C 45.75 41 48 38.75 48 36 L 48 14 C 48 11.25 45.75 9 43 9 Z M 7 11 L 43 11 C 44.667969 11 46 12.332031 46 14 L 46 16 L 4 16 L 4 14 C 4 12.332031 5.332031 11 7 11 Z M 4 21 L 46 21 L 46 36 C 46 37.667969 44.667969 39 43 39 L 7 39 C 5.332031 39 4 37.667969 4 36 Z M 9 24 L 9 26 L 25 26 L 25 24 Z"/></svg>
